packages/design-system/src/icons/assets/ic_timetable_float_finish.svg

<svg xmlns="http://www.w3.org/2000/svg" width="24" height="24" fill="none"><g clip-path="url(#a)"><path fill="#E9FFAC" d="M12 4c-4.416 0-8 3.584-8 8s3.584 8 8 8 8-3.584 8-8-3.584-8-8-8m0 14.4A6.41 6.41 0 0 1 5.6 12c0-3.528 2.872-6.4 6.4-6.4s6.4 2.872 6.4 6.4-2.872 6.4-6.4 6.4m3.104-9.368L10.4 13.736l-1.504-1.504a.797.797 0 1 0-1.128 1.128l2.072 2.072a.797.797 0 0 0 1.128 0l5.272-5.272a.797.797 0 0 0 0-1.128.806.806 0 0 0-1.136 0"/></g><defs><clipPath id="a"><path fill="#fff" d="M0 0h24v24H0z"/></clipPath></defs></svg>

<svg width="24" height="24" viewBox="0 0 24 24" fill="none" xmlns="http://www.w3.org/2000/svg">
<g clip-path="url(#clip0_2203_13684)">
<path d="M12 4C7.584 4 4 7.584 4 12C4 16.416 7.584 20 12 20C16.416 20 20 16.416 20 12C20 7.584 16.416 4 12 4ZM12 18.4C8.472 18.4 5.6 15.528 5.6 12C5.6 8.472 8.472 5.6 12 5.6C15.528 5.6 18.4 8.472 18.4 12C18.4 15.528 15.528 18.4 12 18.4ZM15.104 9.032L10.4 13.736L8.896 12.232C8.584 11.92 8.08 11.92 7.768 12.232C7.456 12.544 7.456 13.048 7.768 13.36L9.84 15.432C10.152 15.744 10.656 15.744 10.968 15.432L16.24 10.16C16.552 9.848 16.552 9.344 16.24 9.032C15.928 8.72 15.416 8.72 15.104 9.032Z" fill="#E9FFAC"/>
</g>
<defs>
<clipPath id="clip0_2203_13684">
<rect width="24" height="24" fill="white"/>
</clipPath>
</defs>
</svg>
